X: 31889
T: Peach Blossoms
R: barndance
M: 4/4
K: Dmajor
|:A>G|A>df>d A>df>d|B2 g2 g2 e>d|c>ea>e c>ea>^g|b2 a2 a2 A>G|
[FA]>df>d A>df>d|B2 g2 g2 e>d|c>eb>a ^g>a=g>e|d2 d2 d2:|
|:A>G|A2 A2 B>cd>e|f>dA>F A2 A2|c>BG>E c2 c2|b>af>d A2 A2|
A2 (3AAA B>cd>e|f>dA>F A2 A2|d>cB>c d>gf>e|d2 d2 d2:|
K: Gmaj
|:d>c|B>DG>B d>gb>g|a2 e2 e2 a>g|f2 c2 c2 (3gfe|d2 B2 B2 d>c|
B2 G>B d>g (3bag|a2 e>^d e2 a>g|f>d (3cBA d>cA>F|G2 G2 G2:|

